X:17
M:2/4
L:1/8
K:Bb
|: bf d/e/f/d/ | Bf d/e/f/d/ | bf d/e/f/d/ | ec c2 | bf d/e/f/d/ | Bfdf | g>g a>a | b>B B2 :|

